svgs/gcash.svg

<svg width="192" height="192" viewBox="0 0 192 192" fill="none" xmlns="http://www.w3.org/2000/svg">
<path d="M84 96H120C120 115.882 103.882 132 84 132C64.1177 132 48 115.882 48 96C48 76.1177 64.1177 60 84 60C93.9411 60 102.941 64.0294 109.456 70.5442" stroke="black" stroke-width="12" stroke-linecap="round" stroke-linejoin="round"/>
<path d="M145.315 66.5643C143.879 63.5779 140.293 62.3211 137.307 63.7572C134.321 65.1933 133.064 68.7783 134.5 71.7647L145.315 66.5643ZM134.5 120.235C133.064 123.222 134.321 126.807 137.307 128.243C140.293 129.679 143.879 128.422 145.315 125.436L134.5 120.235ZM118.24 51.6831C120.86 53.7111 124.629 53.2307 126.657 50.61C128.685 47.9894 128.204 44.2209 125.584 42.1929L118.24 51.6831ZM125.584 149.807C128.204 147.779 128.685 144.011 126.657 141.39C124.629 138.769 120.86 138.289 118.24 140.317L125.584 149.807ZM84 152C53.0721 152 28 126.928 28 96H16C16 133.555 46.4446 164 84 164V152ZM28 96C28 65.0721 53.0721 40 84 40V28C46.4446 28 16 58.4446 16 96H28ZM134.5 71.7647C138.023 79.0912 140 87.3063 140 96H152C152 85.4675 149.601 75.4785 145.315 66.5643L134.5 71.7647ZM140 96C140 104.694 138.023 112.909 134.5 120.235L145.315 125.436C149.601 116.522 152 106.532 152 96H140ZM84 40C96.9034 40 108.772 44.3568 118.24 51.6831L125.584 42.1929C114.088 33.297 99.6542 28 84 28V40ZM118.24 140.317C108.772 147.643 96.9034 152 84 152V164C99.6542 164 114.088 158.703 125.584 149.807L118.24 140.317Z" fill="black"/>
<path d="M161.549 58.7765C166.965 70.0402 170 82.6657 170 96C170 109.334 166.965 121.96 161.549 133.223" stroke="black" stroke-width="12" stroke-linecap="round" stroke-linejoin="round"/>
</svg>

<svg width="192" height="192" viewBox="0 0 192 192" fill="none" xmlns="http://www.w3.org/2000/svg"><path d="M84 96h36c0 19.882-16.118 36-36 36s-36-16.118-36-36 16.118-36 36-36c9.941 0 18.941 4.03 25.456 10.544" stroke="#000" stroke-width="12" stroke-linecap="round" stroke-linejoin="round"/><path d="M145.315 66.564a6 6 0 0 0-10.815 5.2l10.815-5.2ZM134.5 120.235a6 6 0 0 0 10.815 5.201l-10.815-5.201Zm-16.26-68.552a6 6 0 1 0 7.344-9.49l-7.344 9.49Zm7.344 98.124a6 6 0 0 0-7.344-9.49l7.344 9.49ZM84 152c-30.928 0-56-25.072-56-56H16c0 37.555 30.445 68 68 68v-12ZM28 96c0-30.928 25.072-56 56-56V28c-37.555 0-68 30.445-68 68h12Zm106.5-24.235C138.023 79.09 140 87.306 140 96h12c0-10.532-2.399-20.522-6.685-29.436l-10.815 5.2ZM140 96c0 8.694-1.977 16.909-5.5 24.235l10.815 5.201C149.601 116.522 152 106.532 152 96h-12ZM84 40c12.903 0 24.772 4.357 34.24 11.683l7.344-9.49A67.733 67.733 0 0 0 84 28v12Zm34.24 100.317C108.772 147.643 96.903 152 84 152v12a67.733 67.733 0 0 0 41.584-14.193l-7.344-9.49Z" fill="#000"/><path d="M161.549 58.776C166.965 70.04 170 82.666 170 96c0 13.334-3.035 25.96-8.451 37.223" stroke="#000" stroke-width="12" stroke-linecap="round" stroke-linejoin="round"/></svg>
